svg/我的信息源-置灰.svg

<svg width="20" height="20" viewBox="0 0 20 20" fill="none" xmlns="http://www.w3.org/2000/svg"><path opacity="0.3" d="M4.33325 6.50016C4.33325 6.05814 4.50885 5.63421 4.82141 5.32165C5.13397 5.00909 5.55789 4.8335 5.99992 4.8335H8.91659L10.1666 6.0835H15.9999C16.4419 6.0835 16.8659 6.25909 17.1784 6.57165C17.491 6.88421 17.6666 7.30814 17.6666 7.75016V12.7502C17.6666 13.1922 17.491 13.6161 17.1784 13.9287C16.8659 14.2412 16.4419 14.4168 15.9999 14.4168H5.99992C5.55789 14.4168 5.13397 14.2412 4.82141 13.9287C4.50885 13.6161 4.33325 13.1922 4.33325 12.7502V6.50016Z" fill="#9CA3AF"/><path opacity="0.9" d="M2.66675 8.16667C2.66675 7.72464 2.84234 7.30072 3.1549 6.98816C3.46746 6.6756 3.89139 6.5 4.33341 6.5H7.66675L8.91675 7.75H14.3334C14.7754 7.75 15.1994 7.9256 15.5119 8.23816C15.8245 8.55072 16.0001 8.97464 16.0001 9.41667V13.5833C16.0001 14.0254 15.8245 14.4493 15.5119 14.7618C15.1994 15.0744 14.7754 15.25 14.3334 15.25H4.33341C3.89139 15.25 3.46746 15.0744 3.1549 14.7618C2.84234 14.4493 2.66675 14.0254 2.66675 13.5833V8.16667Z" fill="#939AA5"/><rect x="-30.1982" y="-79.6934" width="156.935" height="159.22" stroke="#F97316"/></svg>

<svg fill="none" viewBox="0 0 20 20"><path fill="#9CA3AF" d="M4.333 6.5A1.667 1.667 0 0 1 6 4.834h2.917l1.25 1.25H16a1.667 1.667 0 0 1 1.667 1.666v5A1.667 1.667 0 0 1 16 14.417H6a1.667 1.667 0 0 1-1.667-1.667z" opacity=".3"/><path fill="#939AA5" d="M2.667 8.167A1.667 1.667 0 0 1 4.333 6.5h3.334l1.25 1.25h5.416A1.667 1.667 0 0 1 16 9.417v4.166a1.666 1.666 0 0 1-1.667 1.667h-10a1.667 1.667 0 0 1-1.666-1.667z" opacity=".9"/></svg>
